public/assets/sponsors/wolfram-light.svg

<svg xmlns="http://www.w3.org/2000/svg" viewBox="0 0 3755 2927" fill="#000" fill-rule="evenodd" xmlns:v="https://vecta.io/nano"><path d="M2615.83 1092.88l300.97-337.67-441.93-96.34 45.04-450.088-414.19 181.776L1877.5 0l-228.11 390.52-414.09-181.909 44.93 450.088-441.992 96.284 300.912 337.757-300.969 337.65 441.929 96.34-45.02 450.07 414.15-181.8 228.26 390.56 228.09-390.52 414.13 181.89-44.93-450.09 441.95-96.26-300.91-337.7zm145.99 254.01l-260.69-89.17-172.95-224.81 230.04 85.47 203.6 228.51zm-698.43 401.48l-155.91 266.95v-283.05l162.06-236.49-6.15 252.59zM1790.3 641.688l-268.27-95.392-160.52-216.728 281.34 123.592 147.45 188.528zm321.98-188.471L2393.6 329.7l-160.63 216.577-268.19 95.392 147.5-188.452zm301.05 218.416l-139.9 198.37 7.92-288.243 162.95-219.725-30.97 309.598zM1877.5 1669.93l-187.71-273.87 187.71-254.69 187.69 254.69-187.69 273.87zm-333.83-723.253l-9.13-332.279 312.98 111.284v323.388l-303.85-102.393zm363.81-220.995l312.98-111.284-9.14 332.298-303.84 102.374V725.682zM1341.77 671.5l-30.91-309.522 162.79 219.763 7.91 288.186L1341.77 671.5zm487.2 434.61l-187.64 254.6-318.74-93.97L1525 1003.7l303.97 102.41zm-143.56 389.63l162.11 236.53v283.1l-156.06-267.04-6.05-252.59zm240.6-389.63l304-102.41 202.41 263.04-318.77 93.99-187.64-254.62zm877.72-314.146l-236.79 265.696-279.25-103.757 167.76-237.893 348.28 75.954zM1877.5 118.908l179.65 307.417-179.65 229.548-179.54-229.567 179.54-307.398zM951.324 791.717l348.346-75.858 167.64 238.006-279.21 103.605-236.776-265.753zm245.426 326.513l230.13-85.38-172.99 224.83-260.806 89.06 203.666-228.51zm-190.49 287.39l266.53-91.01 277.61 81.83-239.18 75.67-304.96-66.49zm334.24 120.12l283.48-89.7 7.23 301.35-326.2 143.22 35.49-354.87zm783.14 211.73l7.34-301.41 283.45 89.8 35.42 354.88-326.21-143.27zm320.07-265.24l-239.18-75.77 277.7-81.85 266.56 91.18-305.08 66.44zM0 2415.24h129.434l60.914 336.25 89.779-336.25h113.788l106.581 342.13 62.318-342.13H685.8l-105.216 503.14H438.595l-94.425-313.91-96.587 313.89H98.616L0 2415.24zm3755 503.14h-129.43l-60.82-337.48-89.86 337.46h-113.84l-106.11-342.05-62.73 342.05h-123.03l105.24-503.14h141.97l94.4 314.17 96.68-314.15h148.89l98.64 503.14zM956.861 2406.52c163.759 0 249.199 98.81 249.199 260.27 0 160.02-86.86 260.18-249.199 260.18-162.28 0-249.138-100.16-249.138-260.18 0-161.45 85.417-260.25 249.138-260.25v-.02zm0 420.98c80.469 0 112.459-77.85 112.459-160.71 0-87.29-31.99-160.76-112.459-160.76s-112.479 73.47-112.479 160.76c0 82.88 32.012 160.71 112.46 160.71h.019zm323.249-412.33h132.43v403.68h205.03v99.41h-337.46v-503.09zm392.29 0h332.35v95.16h-199.96v110.32h191.43v95.09h-191.43v202.52H1672.4v-503.09zm401.59 0h236.34c88.3 0 160.21 40.34 160.21 126.91 0 67.06-31.33 111.7-95.39 126.83v1.48c42.67 11.53 45.57 49.75 70.47 111.02l48.36 136.85h-138.06l-28.45-90.76c-27.12-86.48-44.15-108.14-93.26-108.14h-27.82v198.9h-132.4v-503.09zm132.38 209.1h34.97c42.67 0 96.79-1.46 96.79-58.43 0-46.84-46.27-55.51-96.79-55.51h-34.95l-.02 113.94zm488.22-209.1h162.36l191.48 503.09H2903.2l-37.02-107.34H2679.7l-39.18 107.34h-134.59l188.66-503.09zm81.19 103.85h-1.38l-64.07 196.72h124.52l-59.07-196.72z"/></svg>

<svg viewBox="0 0 3755 2927" fill="none" xmlns="http://www.w3.org/2000/svg">
<path fill-rule="evenodd" clip-rule="evenodd" d="M2615.83 1092.88L2916.8 755.21L2474.87 658.87L2519.91 208.782L2105.72 390.558L1877.5 0L1649.39 390.52L1235.3 208.611L1280.23 658.699L838.238 754.983L1139.15 1092.74L838.181 1430.39L1280.11 1526.73L1235.09 1976.8L1649.24 1795L1877.5 2185.56L2105.59 1795.04L2519.72 1976.93L2474.79 1526.84L2916.74 1430.58L2615.83 1092.88ZM2761.82 1346.89L2501.13 1257.72L2328.18 1032.91L2558.22 1118.38L2761.82 1346.89ZM2063.39 1748.37L1907.48 2015.32V1732.27L2069.54 1495.78L2063.39 1748.37ZM1790.3 641.688L1522.03 546.296L1361.51 329.568L1642.85 453.16L1790.3 641.688ZM2112.28 453.217L2393.6 329.7L2232.97 546.277L1964.78 641.669L2112.28 453.217ZM2413.33 671.633L2273.43 870.003L2281.35 581.76L2444.3 362.035L2413.33 671.633ZM1877.5 1669.93L1689.79 1396.06L1877.5 1141.37L2065.19 1396.06L1877.5 1669.93ZM1543.67 946.677L1534.54 614.398L1847.52 725.682V1049.07L1543.67 946.677ZM1907.48 725.682L2220.46 614.398L2211.32 946.696L1907.48 1049.07V725.682ZM1341.77 671.5L1310.86 361.978L1473.65 581.741L1481.56 869.927L1341.77 671.5ZM1828.97 1106.11L1641.33 1360.71L1322.59 1266.74L1525 1003.7L1828.97 1106.11ZM1685.41 1495.74L1847.52 1732.27V2015.37L1691.46 1748.33L1685.41 1495.74ZM1926.01 1106.11L2230.01 1003.7L2432.42 1266.74L2113.65 1360.73L1926.01 1106.11ZM2803.73 791.964L2566.94 1057.66L2287.69 953.903L2455.45 716.01L2803.73 791.964ZM1877.5 118.908L2057.15 426.325L1877.5 655.873L1697.96 426.306L1877.5 118.908ZM951.324 791.717L1299.67 715.859L1467.31 953.865L1188.1 1057.47L951.324 791.717ZM1196.75 1118.23L1426.88 1032.85L1253.89 1257.68L993.084 1346.74L1196.75 1118.23ZM1006.26 1405.62L1272.79 1314.61L1550.4 1396.44L1311.22 1472.11L1006.26 1405.62ZM1340.5 1525.74L1623.98 1436.04L1631.21 1737.39L1305.01 1880.61L1340.5 1525.74ZM2123.64 1737.47L2130.98 1436.06L2414.43 1525.86L2449.85 1880.74L2123.64 1737.47ZM2443.71 1472.23L2204.53 1396.46L2482.23 1314.61L2748.79 1405.79L2443.71 1472.23Z" fill="black"/>
<path fill-rule="evenodd" clip-rule="evenodd" d="M0 2415.24H129.434L190.348 2751.49L280.127 2415.24H393.915L500.496 2757.37L562.814 2415.24H685.8L580.584 2918.38H438.595L344.17 2604.47L247.583 2918.36H98.6162L0 2415.24ZM3755 2918.38H3625.57L3564.75 2580.9L3474.89 2918.36H3361.05L3254.94 2576.31L3192.21 2918.36H3069.18L3174.42 2415.22H3316.39L3410.79 2729.39L3507.47 2415.24H3656.36L3755 2918.38ZM956.861 2406.52C1120.62 2406.52 1206.06 2505.33 1206.06 2666.79C1206.06 2826.81 1119.2 2926.97 956.861 2926.97C794.581 2926.97 707.723 2826.81 707.723 2666.79C707.723 2505.34 793.14 2406.54 956.861 2406.54V2406.52ZM956.861 2827.5C1037.33 2827.5 1069.32 2749.65 1069.32 2666.79C1069.32 2579.5 1037.33 2506.03 956.861 2506.03C876.394 2506.03 844.382 2579.5 844.382 2666.79C844.382 2749.67 876.394 2827.5 956.842 2827.5H956.861ZM1280.11 2415.17H1412.54V2818.85H1617.57V2918.26H1280.11V2415.17ZM1672.4 2415.17H2004.75V2510.33H1804.79V2620.65H1996.22V2715.74H1804.79V2918.26H1672.4V2415.17ZM2073.99 2415.17H2310.33C2398.63 2415.17 2470.54 2455.51 2470.54 2542.08C2470.54 2609.14 2439.21 2653.78 2375.15 2668.91V2670.39C2417.82 2681.92 2420.72 2720.14 2445.62 2781.41L2493.98 2918.26H2355.92L2327.47 2827.5C2300.35 2741.02 2283.32 2719.36 2234.21 2719.36H2206.39V2918.26H2073.99V2415.17ZM2206.37 2624.27H2241.34C2284.01 2624.27 2338.13 2622.81 2338.13 2565.84C2338.13 2519 2291.86 2510.33 2241.34 2510.33H2206.39L2206.37 2624.27ZM2694.59 2415.17H2856.95L3048.43 2918.26H2903.2L2866.18 2810.92H2679.7L2640.52 2918.26H2505.93L2694.59 2415.17ZM2775.78 2519.02H2774.4L2710.33 2715.74H2834.85L2775.78 2519.02Z" fill="black"/>
</svg>
